static/assets/template/assets/img/icons/essential/detailed/Receiving_Money.svg

<svg height="151" viewBox="0 0 128 151" width="128" xmlns="http://www.w3.org/2000/svg"><g fill="none" fill-rule="evenodd" transform="translate(1 2)"><path d="m24.4 121.2v.5.5c0-.3 0-.7 0-1z" fill-rule="nonzero"/><g transform="translate(23 103)"><path d="m61.2 21.8h-10.9c-5.1 0-9.2-4.1-9.2-9.2s4.1-9.2 9.2-9.2l47.8 2.8" fill-rule="nonzero"/><path d="m101.7 28.6-.8-.1.2-.1-.6-15.3c0-.8-.3-1.4-.8-1.9h.1-.1c-.5-.5-1.1-.8-1.8-.8-.2 0-47.2-2.4-47.4-2.4-4.6 0-8.4 3.4-9.1 7.8 0-.2 0-.3-.1-.5v-.5 1.4c-.1.8-.1.9 0 1.5l-26.4-16.1c-6.1-3.8-14 .7-14 7.8 0 .1.1 1.8.2 1.8 0 .2.1.5.1.5.7 2.4 1.9 4.1 4.1 5.5 28.1 21.6 22.9 18.5 31.4 21.3 21.4 7.2 15.2 7.2 36.8-.1l22.5-7.7 1.1-.4.9-.3 1.9-.7 1.5-.5z" fill-rule="nonzero"/><g stroke-linecap="round" stroke-linejoin="round" stroke-width="3"><path d="m61.2 21.8h-10.9c-5.1 0-9.2-4.1-9.2-9.2s4.1-9.2 9.2-9.2l49.3 2.9c1.2.1 2.2 1.1 2.2 2.3"/><path d="m70.7 21.8h-2.6"/><path d="m44.5 19.7-2.5-1.5-.4-.3-.2-.1-.1-.1-26.4-16.1c-4.3-2.7-10-1.3-12.6 3-.9 1.5-1.4 3.2-1.4 4.8 0 .6.1 1.2.2 1.8 0 .2.1.3.1.5 0 .2.1.4.2.5.2.7.5 1.3.9 1.9.1.1.1.2.2.3s.2.2.2.4c.1.2.3.4.5.6 0 .1.1.1.2.2l.4.4c.1.1.2.2.4.3.1.1.2.2.4.3.1.1.3.2.4.3.2.1.3.2.5.3l23.4 18c1 .8 2.1 1.4 3.3 1.8l18.6 6.3c2.9 1 6 1 8.9 0l36.5-12.5 1.9-.7 1.9-.7 1.9-.7"/></g></g><g transform="translate(0 13)"><path d="m107.6 83h-88.8c-3 0-5.4-2.4-5.4-5.4v-38.9c0-3 2.4-5.4 5.4-5.4h88.8c3 0 5.4 2.4 5.4 5.4v38.9c0 3-2.4 5.4-5.4 5.4z" fill-rule="nonzero"/><path d="m107.6 83h-85.7c-3 0-5.4-2.4-5.4-5.4v-36.1c0-3 2.4-5.4 5.4-5.4h85.7c3 0 5.4 2.4 5.4 5.4v36.1c0 3-2.4 5.4-5.4 5.4z" fill-rule="nonzero"/><g stroke-linecap="round" stroke-linejoin="round" stroke-width="3"><path d="m102.9 33.4h4.7c3 0 5.4 2.4 5.4 5.4v38.9c0 3-2.4 5.4-5.4 5.4h-88.8c-3 0-5.4-2.4-5.4-5.4v-28.7"/><path d="m97.9 33.4h.4"/><path d="m21.7 33.4h68.6"/></g><path d="m85.7 33.4h-23.3l-8.8-7.9c-1.6-1.4-3.6-2.3-5.8-2.4l-7.1-.4c-1.1-.1-2 .6-2.3 1.6l-2.5 8.4c-.4 1.2.3 2.5 1.4 3l.3.1 3 1.3 11.8 4.9c.8.3 1.5.7 2.1 1.2 3.2 2.5 4.5 7.1 2.6 11-.8 1.6-2.4 2.6-4.1 2.6-.5 0-1-.1-1.5-.2l-14.9-5.1-18.5-6.4c-3-1-5.6-2.8-7.7-5.1l-6-6.6-3-3.4c-.5-.6-.8-1.3-.8-2 0-4.1.2-18.4.1-24.6 0-1.7 1.3-3 3-3h43.8c3.6 0 7 1.5 9.6 4z" fill-rule="nonzero"/><path d="m35.9 32.7c-.4 1.2.3 2.5 1.4 3l.3.1 3 1.3c.3.3.6.6 1 .8l.3.1 12.6 5.3c6.3 4.9 3.3 15.5-2.9 13.3l-14.9-5.1-18.5-6.4c-3-1-5.6-2.8-7.7-5.1l-6-6.6c-.1-.3-.2-.7-.2-1.1 0-4.1.2-18.4.1-24.6 0-1.7 1.3-3 3-3h43.8c3.6 0 7 1.5 9.6 4l24.2 24.8h-22.7l-8.8-7.9c-1.6-1.4-3.6-2.3-5.8-2.4l-7.1-.4c-1.1-.1-2 .6-2.3 1.6z" fill-rule="nonzero"/><path d="m2 .9c.5-.4 1.1-.6 1.8-.6h5.2" stroke-linecap="round" stroke-linejoin="round" stroke-width="3"/><path d="m20.1.3h27.5c3.6 0 7 1.5 9.6 4l28.5 29.1h-23.3l-8.8-7.9c-1.6-1.4-3.6-2.3-5.8-2.4l-7.1-.4c-1.1-.1-2 .6-2.3 1.6l-2.5 8.4c-.4 1.2.3 2.5 1.4 3l.3.1 14.8 6.2c4.8 2 6.9 7.6 4.7 12.2-.8 1.6-2.4 2.6-4.1 2.6-.5 0-1-.1-1.5-.2l-14.9-5.1-18.5-6.4c-3-1-5.6-2.8-7.7-5.1l-9-10" stroke-linecap="round" stroke-linejoin="round" stroke-width="3"/><path d="m15.5.3h.3" stroke-linecap="round" stroke-linejoin="round" stroke-width="3"/></g><g stroke-linecap="round" stroke-linejoin="round"><path d="m55.6 53h45.8c0 2.6 2.1 4.7 4.7 4.7v27.3c-2.6 0-4.7 2.1-4.7 4.7h-75.2c0-2.6-2.1-4.7-4.7-4.7v-19.1" stroke-width="3"/><path d="m62.3 58.5c1.1-.4 2.3-.6 3.5-.6 2.9 0 5.6 1.2 7.6 3.3" stroke-width="3"/><path d="m54.3 72.8c0-.5-.1-1-.1-1.5 0-.4 0-.7 0-1" stroke-width="3"/><path d="m76.4 65.5c.7 1.8 1.1 3.7 1.1 5.8 0 7.4-5.2 13.4-11.6 13.4-4.3 0-8.1-2.7-10.1-6.8" stroke-width="3"/><path d="m44.2 71h-6.6" stroke-width="3"/><path d="m88.1 71h6.3" stroke-width="3"/><path d="m104.9 21.5v-6.1" stroke-width="4"/><path d="m104.9 35.7v-5.7" stroke-width="4"/><path d="m97.7 3.2v-2.4" stroke-width="4"/><path d="m97.7 31.3v-22.1" stroke-width="4"/></g></g></svg>

<?xml version="1.0" encoding="UTF-8"?>
<svg width="128px" height="151px" viewBox="0 0 128 151" version="1.1" xmlns="http://www.w3.org/2000/svg" xmlns:xlink="http://www.w3.org/1999/xlink">
    <!-- Generator: Sketch 51.2 (57519) - http://www.bohemiancoding.com/sketch -->
    <title>Receiving_Money</title>
    <desc>Created with Sketch.</desc>
    <defs></defs>
    <g id="Page-1" stroke="none" stroke-width="1" fill="none" fill-rule="evenodd">
        <g id="Receiving_Money" transform="translate(1.000000, 2.000000)">
            <path d="M24.4,121.2 C24.4,121.4 24.4,121.5 24.4,121.7 C24.4,121.7 24.4,121.7 24.4,121.7 C24.4,121.9 24.4,122 24.4,122.2 C24.4,121.9 24.4,121.5 24.4,121.2 Z" id="Shape" class="fill-primary-100" fill-rule="nonzero"></path>
            <g id="Group" transform="translate(23.000000, 103.000000)">
                <path d="M61.2,21.8 L50.3,21.8 C45.2,21.8 41.1,17.7 41.1,12.6 C41.1,7.5 45.2,3.4 50.3,3.4 L98.1,6.2" id="Shape" class="fill-neutral" fill-rule="nonzero"></path>
                <path d="M101.7,28.6 L100.9,28.5 L101.1,28.4 L100.5,13.1 C100.5,12.3 100.2,11.7 99.7,11.2 L99.8,11.2 L99.7,11.2 C99.2,10.7 98.6,10.4 97.9,10.4 C97.7,10.4 50.7,8 50.5,8 C45.9,8 42.1,11.4 41.4,15.8 C41.4,15.6 41.4,15.5 41.3,15.3 C41.3,15.3 41.3,14.8 41.3,14.8 C41.3,14.9 41.3,16.2 41.3,16.2 C41.2,17 41.2,17.1 41.3,17.7 L14.9,1.6 C8.8,-2.2 0.9,2.3 0.9,9.4 C0.9,9.5 1,11.2 1.1,11.2 C1.1,11.4 1.2,11.7 1.2,11.7 C1.2,11.7 1.2,11.7 1.2,11.7 C1.9,14.1 3.1,15.8 5.3,17.2 C33.4,38.8 28.2,35.7 36.7,38.5 C58.1,45.7 51.9,45.7 73.5,38.4 L96,30.7 L97.1,30.3 L98,30 L99.9,29.3 L101.4,28.8 L101.7,28.6 Z" id="Shape" class="fill-primary-100" fill-rule="nonzero"></path>
                <path d="M61.2,21.8 L50.3,21.8 C45.2,21.8 41.1,17.7 41.1,12.6 C41.1,7.5 45.2,3.4 50.3,3.4 L99.6,6.3 C100.8,6.4 101.8,7.4 101.8,8.6" id="Shape" class="stroke-primary" stroke-width="3" stroke-linecap="round" stroke-linejoin="round"></path>
                <path d="M70.7,21.8 L68.1,21.8" id="Shape" class="stroke-primary" stroke-width="3" stroke-linecap="round" stroke-linejoin="round"></path>
                <path d="M44.5,19.7 L42,18.2 L41.6,17.9 L41.4,17.8 L41.3,17.7 L14.9,1.6 C10.6,-1.1 4.9,0.3 2.3,4.6 C1.4,6.1 0.9,7.8 0.9,9.4 C0.9,10 1,10.6 1.1,11.2 C1.1,11.2 1.1,11.2 1.1,11.2 C1.1,11.4 1.2,11.5 1.2,11.7 C1.2,11.7 1.2,11.7 1.2,11.7 C1.2,11.9 1.3,12.1 1.4,12.2 C1.6,12.9 1.9,13.5 2.3,14.1 C2.4,14.2 2.4,14.3 2.5,14.4 C2.6,14.5 2.7,14.6 2.7,14.8 C2.8,15 3,15.2 3.2,15.4 C3.2,15.5 3.3,15.5 3.4,15.6 C3.5,15.7 3.6,15.8 3.8,16 C3.9,16.1 4,16.2 4.2,16.3 C4.3,16.4 4.4,16.5 4.6,16.6 C4.7,16.7 4.9,16.8 5,16.9 C5.2,17 5.3,17.1 5.5,17.2 L28.9,35.2 C29.9,36 31,36.6 32.2,37 L50.8,43.3 C53.7,44.3 56.8,44.3 59.7,43.3 L96.2,30.8 L98.1,30.1 L100,29.4 L101.9,28.7" id="Shape" class="stroke-primary" stroke-width="3" stroke-linecap="round" stroke-linejoin="round"></path>
            </g>
            <g id="Group" transform="translate(0.000000, 13.000000)">
                <path d="M107.6,83 L18.8,83 C15.8,83 13.4,80.6 13.4,77.6 L13.4,38.7 C13.4,35.7 15.8,33.3 18.8,33.3 L107.6,33.3 C110.6,33.3 113,35.7 113,38.7 L113,77.6 C113,80.6 110.6,83 107.6,83 Z" id="Shape" class="fill-neutral" fill-rule="nonzero"></path>
                <path d="M107.6,83 L21.9,83 C18.9,83 16.5,80.6 16.5,77.6 L16.5,41.5 C16.5,38.5 18.9,36.1 21.9,36.1 L107.6,36.1 C110.6,36.1 113,38.5 113,41.5 L113,77.6 C113,80.6 110.6,83 107.6,83 Z" id="Shape" class="fill-primary-300" fill-rule="nonzero"></path>
                <path d="M102.9,33.4 L107.6,33.4 C110.6,33.4 113,35.8 113,38.8 L113,77.7 C113,80.7 110.6,83.1 107.6,83.1 L18.8,83.1 C15.8,83.1 13.4,80.7 13.4,77.7 L13.4,49" id="Shape" class="stroke-primary" stroke-width="3" stroke-linecap="round" stroke-linejoin="round"></path>
                <path d="M97.9,33.4 L98.3,33.4" id="Shape" class="stroke-primary" stroke-width="3" stroke-linecap="round" stroke-linejoin="round"></path>
                <path d="M21.7,33.4 L90.3,33.4" id="Shape" class="stroke-primary" stroke-width="3" stroke-linecap="round" stroke-linejoin="round"></path>
                <path d="M85.7,33.4 L62.4,33.4 L53.6,25.5 C52,24.1 50,23.2 47.8,23.1 L40.7,22.7 C39.6,22.6 38.7,23.3 38.4,24.3 L35.9,32.7 C35.5,33.9 36.2,35.2 37.3,35.7 L37.6,35.8 L40.6,37.1 L52.4,42 C53.2,42.3 53.9,42.7 54.5,43.2 C57.7,45.7 59,50.3 57.1,54.2 C56.3,55.8 54.7,56.8 53,56.8 C52.5,56.8 52,56.7 51.5,56.6 L36.6,51.5 L18.1,45.1 C15.1,44.1 12.5,42.3 10.4,40 L4.4,33.4 L1.4,30 C0.9,29.4 0.6,28.7 0.6,28 C0.6,23.9 0.8,9.6 0.7,3.4 C0.7,1.7 2,0.4 3.7,0.4 L47.5,0.4 C51.1,0.4 54.5,1.9 57.1,4.4 L85.7,33.4 Z" id="Shape" class="fill-neutral" fill-rule="nonzero"></path>
                <path d="M35.9,32.7 C35.5,33.9 36.2,35.2 37.3,35.7 L37.6,35.8 L40.6,37.1 C40.9,37.4 41.2,37.7 41.6,37.9 L41.9,38 L54.5,43.3 C60.8,48.2 57.8,58.8 51.6,56.6 L36.7,51.5 L18.2,45.1 C15.2,44.1 12.6,42.3 10.5,40 L4.5,33.4 C4.4,33.1 4.3,32.7 4.3,32.3 C4.3,28.2 4.5,13.9 4.4,7.7 C4.4,6 5.7,4.7 7.4,4.7 L51.2,4.7 C54.8,4.7 58.2,6.2 60.8,8.7 L85,33.5 L62.3,33.5 L53.5,25.6 C51.9,24.2 49.9,23.3 47.7,23.2 L40.6,22.8 C39.5,22.7 38.6,23.4 38.3,24.4 L35.9,32.7 Z" id="Shape" class="fill-primary-100" fill-rule="nonzero"></path>
                <path d="M2,0.9 C2.5,0.5 3.1,0.3 3.8,0.3 L9,0.3" id="Shape" class="stroke-primary" stroke-width="3" stroke-linecap="round" stroke-linejoin="round"></path>
                <path d="M20.1,0.3 L47.6,0.3 C51.2,0.3 54.6,1.8 57.2,4.3 L85.7,33.4 L62.4,33.4 L53.6,25.5 C52,24.1 50,23.2 47.8,23.1 L40.7,22.7 C39.6,22.6 38.7,23.3 38.4,24.3 L35.9,32.7 C35.5,33.9 36.2,35.2 37.3,35.7 L37.6,35.8 L52.4,42 C57.2,44 59.3,49.6 57.1,54.2 C56.3,55.8 54.7,56.8 53,56.8 C52.5,56.8 52,56.7 51.5,56.6 L36.6,51.5 L18.1,45.1 C15.1,44.1 12.5,42.3 10.4,40 L1.4,30" id="Shape" class="stroke-primary" stroke-width="3" stroke-linecap="round" stroke-linejoin="round"></path>
                <path d="M15.5,0.3 L15.8,0.3" id="Shape" class="stroke-primary" stroke-width="3" stroke-linecap="round" stroke-linejoin="round"></path>
            </g>
            <path d="M55.6,53 L101.4,53 C101.4,55.6 103.5,57.7 106.1,57.7 L106.1,85 C103.5,85 101.4,87.1 101.4,89.7 L26.2,89.7 C26.2,87.1 24.1,85 21.5,85 L21.5,65.9" id="Shape" class="stroke-primary" stroke-width="3" stroke-linecap="round" stroke-linejoin="round"></path>
            <path d="M62.3,58.5 C63.4,58.1 64.6,57.9 65.8,57.9 C68.7,57.9 71.4,59.1 73.4,61.2" id="Shape" class="stroke-primary" stroke-width="3" stroke-linecap="round" stroke-linejoin="round"></path>
            <path d="M54.3,72.8 C54.3,72.3 54.2,71.8 54.2,71.3 C54.2,70.9 54.2,70.6 54.2,70.3" id="Shape" class="stroke-primary" stroke-width="3" stroke-linecap="round" stroke-linejoin="round"></path>
            <path d="M76.4,65.5 C77.1,67.3 77.5,69.2 77.5,71.3 C77.5,78.7 72.3,84.7 65.9,84.7 C61.6,84.7 57.8,82 55.8,77.9" id="Shape" class="stroke-primary" stroke-width="3" stroke-linecap="round" stroke-linejoin="round"></path>
            <path d="M44.2,71 L37.6,71" id="Shape" class="stroke-primary" stroke-width="3" stroke-linecap="round" stroke-linejoin="round"></path>
            <path d="M88.1,71 L94.4,71" id="Shape" class="stroke-primary" stroke-width="3" stroke-linecap="round" stroke-linejoin="round"></path>
            <path d="M104.9,21.5 L104.9,15.4" id="Shape" class="stroke-primary-300" stroke-width="4" stroke-linecap="round" stroke-linejoin="round"></path>
            <path d="M104.9,35.7 L104.9,30" id="Shape" class="stroke-primary-300" stroke-width="4" stroke-linecap="round" stroke-linejoin="round"></path>
            <path d="M97.7,3.2 L97.7,0.8" id="Shape" class="stroke-primary-300" stroke-width="4" stroke-linecap="round" stroke-linejoin="round"></path>
            <path d="M97.7,31.3 L97.7,9.2" id="Shape" class="stroke-primary-300" stroke-width="4" stroke-linecap="round" stroke-linejoin="round"></path>
        </g>
    </g>
</svg>
